assets/capabilities/measure_pm10.svg

<svg height="960" viewBox="0 0 960 960" width="960" xmlns="http://www.w3.org/2000/svg"><g transform="translate(0 135)"><path d="m891.201463 429.027086c11.011586-2.592824 17.838466-13.6201 15.250623-24.633922-17.48153-74.276668-71.571871-135.770032-142.531158-162.991705-35.292211-140.57063-163.715628-241.401459-309.721149-241.401459-146.837539 0-275.489533 101.589781-310.132587 243.230258-87.0713171 35.587088-143.99502494 120.282271-144.067192 214.353523 0 124.879536 97.0992945 225.975541 221.499765 231.196762 1.002126.146481 2.013581.219457 3.026353.219457h35.475072c11.313567 0 20.485025-9.172397 20.485025-20.487121s-9.171458-20.487121-20.485025-20.487121h-33.225879c-.530298-.054863-1.060595-.091439-1.600036-.109727-103.316575-3.310127-184.2052243-86.91367-184.2052243-190.33225.0535287-80.884497 51.1221486-152.936143 127.4176803-179.770935 6.796972-2.367434 11.851486-8.130725 13.312295-15.179031 26.514874-128.436549 141.177986-221.6595749 272.536325-221.6595749 130.67261 0 245.162004 92.6195219 272.271177 220.2513999 1.52215 7.161596 6.750821 12.966014 13.714589 15.224751 62.849393 20.455116 111.289323 73.078805 126.402801 137.333656 2.597521 10.982389 13.585039 17.797146 24.576545 15.243039z"/><path d="m412.60605 483.922717c-7.895903-1.972834-22.038912-2.922717-43.216786-2.922717h-35.348364c-4.993151 0-9.0409 4.036043-9.0409 9.014754v176.970492c0 4.978711 4.047749 9.014754 9.0409 9.014754h17.733722c4.993151 0 9.0409-4.036043 9.0409-9.014754v-73.277986h3.663992c22.899951 0 38.398637-1.022951 47.247178-3.132787 12.933892-3.105386 23.302989-9.34356 30.823333-18.53185s11.449975-21.007026 11.449975-34.871663-3.947951-25.57377-11.743095-34.935597c-7.605087-9.177874-18.022339-15.611667-29.650855-18.312646zm-30.676774 74.803278-21.113754-.255737v-42.123654h22.332032c13.410211 0 19.675637 1.351757 22.561031 2.493443 3.51128 1.384702 6.484369 3.856177 8.482141 7.051054 2.229818 3.362005 3.397603 7.313356 3.352553 11.343794.068042 4.107706-1.099675 8.141539-3.352553 11.581264-2.149194 3.313815-5.313535 5.847577-9.02258 7.22459-3.105233 1.223888-9.691259 2.676113-23.23887 2.685246z"/><path d="m646.453201 481h-2.834598c-3.44205 0-6.584449 1.95529-8.101462 5.041217l-63.275534 128.770133-63.897317-128.824929c-1.526563-3.052835-4.648293-4.982961-8.064887-4.986421h-2.871173c-4.49123-.003849-8.300411 3.294425-8.933555 7.735344l-25.383364 176.935642c-.371193 2.587266.400292 5.208065 2.114451 7.182973 1.71416 1.974908 4.202196 3.10945 6.819103 3.109505h17.099024c4.514394.000009 8.334376-3.331544 8.942699-7.79927l13.441479-98.458921 50.327823 101.253507c1.524386 3.065821 4.655912 5.004699 8.083175 5.004684h4.526213c3.431354-.003425 6.563924-1.950028 8.083175-5.022949l49.642034-100.276316 13.496342 97.554791c.616164 4.457036 4.428702 7.777704 8.933554 7.78101h17.37334c2.617939.003001 5.107912-1.130666 6.822749-3.106354 1.714836-1.975688 2.485178-4.598278 2.110806-7.18613l-25.520523-176.99957c-.649185-4.42802-4.452812-7.707946-8.933554-7.707946z"/><path d="m765.047722 481h-34.565236c-3.120628 0-6.016555 1.633158-7.644846 4.311411l-10.532092 17.355256c-1.682153 2.781652-1.74277 6.259683-.158581 9.098955 1.584189 2.839271 4.56701 4.598578 7.803427 4.602562h18.667225v150.616217c0 4.979178 4.012136 9.015599 8.961357 9.015599h17.459667c4.949221 0 8.961357-4.036421 8.961357-9.015599v-176.996205c-.014998-4.96491-4.017219-8.983189-8.952278-8.988196z"/><path d="m950.203302 521.326759c-6.053415-14.785021-14.53917-26.134216-25.228661-33.718621-10.603203-7.62705-23.356907-11.690835-36.42108-11.606622-12.931167-.091481-25.551718 3.959817-36.009593 11.560932-10.543185 7.584406-18.745472 18.696017-24.387402 33.033284-5.486479 13.953479-8.156566 32.740873-8.156566 57.467862 0 24.571646 2.74324 43.349903 8.27544 57.413036 5.724227 14.465197 13.935658 25.585946 24.396545 33.078973 10.425443 7.535363 22.987944 11.543887 35.854144 11.442521 13.130981.076496 25.944509-4.033815 36.57653-11.734932 10.762644-7.666646 19.257543-19.015841 25.228661-33.746035 5.833957-14.373819 8.668659-32.841389 8.668659-56.4627.009123-23.383727-2.953576-42.472671-8.796677-56.727698zm-44.449628 118.700514c-10.479175 7.949919-22.39398 8.096124-33.30293-.173619-5.48648-4.18513-9.820798-10.618168-12.801786-19.107219-3.227878-9.238354-4.864678-23.493381-4.864678-42.381292s1.655088-33.252592 4.910399-42.47267c2.999276-8.498189 7.315306-14.922089 12.737777-19.079806 5.42247-4.157716 10.79922-6.049248 16.697186-6.049248 5.742515 0 11.146697 1.982911 16.523447 6.058386 5.37675 4.075476 9.921384 11.102473 13.249848 20.706341 3.5845 10.344032 5.404182 24.078203 5.404182 40.827859 0 16.749657-2.05743 30.958995-6.144857 42.628014-2.89869 8.589567-7.095847 14.995192-12.408588 19.043254z"/><path d="m455.5 317c11.321837 0 20.5-9.178163 20.5-20.5s-9.178163-20.5-20.5-20.5-20.5 9.178163-20.5 20.5c.014971 11.31563 9.18437 20.485029 20.5 20.5z"/><path d="m476 411.5c0-11.321837-9.178163-20.5-20.5-20.5s-20.5 9.178163-20.5 20.5 9.178163 20.5 20.5 20.5c11.317697-.009989 20.490011-9.182303 20.5-20.5z"/><path d="m455.5 201c11.321837 0 20.5-9.178163 20.5-20.5s-9.178163-20.5-20.5-20.5-20.5 9.178163-20.5 20.5c.014971 11.31563 9.18437 20.485029 20.5 20.5z"/><path d="m365.5 374c11.321837 0 20.5-9.178163 20.5-20.5s-9.178163-20.5-20.5-20.5-20.5 9.178163-20.5 20.5c.009989 11.317697 9.182303 20.490011 20.5 20.5z"/><path d="m365.4997 259c8.291355 0 15.76629-4.994592 18.939254-12.654805s1.419097-16.477499-4.443776-22.340373c-5.862874-5.862873-14.68016-7.61674-22.340373-4.443776s-12.654805 10.647899-12.654805 18.939254c.009989 11.317531 9.182169 20.489711 20.4997 20.4997z"/><path d="m275.5 276c-11.321837 0-20.5 9.178163-20.5 20.5s9.178163 20.5 20.5 20.5 20.5-9.178163 20.5-20.5c-.014971-11.31563-9.18437-20.485029-20.5-20.5z"/><path d="m545.5 374c11.321837 0 20.5-9.178163 20.5-20.5s-9.178163-20.5-20.5-20.5-20.5 9.178163-20.5 20.5c.009989 11.317697 9.182303 20.490011 20.5 20.5z"/><path d="m545.4997 259c8.291355 0 15.76629-4.994592 18.939254-12.654805s1.419097-16.477499-4.443776-22.340373c-5.862874-5.862873-14.68016-7.61674-22.340373-4.443776s-12.654805 10.647899-12.654805 18.939254c.014971 11.315465 9.184235 20.484729 20.4997 20.4997z"/><path d="m656 296.5c0-11.321837-9.178163-20.5-20.5-20.5s-20.5 9.178163-20.5 20.5 9.178163 20.5 20.5 20.5c11.31563-.014971 20.485029-9.18437 20.5-20.5z"/></g></svg>

<?xml version="1.0" encoding="UTF-8"?>
<svg width="960px" height="960px" viewBox="0 0 960 960" version="1.1" xmlns="http://www.w3.org/2000/svg" xmlns:xlink="http://www.w3.org/1999/xlink">
    <title>custom-capabilities/measure_pm10</title>
    <g id="custom-capabilities/measure_pm10" stroke="none" stroke-width="1" fill="none" fill-rule="evenodd">
        <g id="measure_PM10" transform="translate(0.000000, 135.000000)" fill="#000000" fill-rule="nonzero">
            <path d="M891.201463,429.027086 C902.213049,426.434262 909.039929,415.406986 906.452086,404.393164 C888.970556,330.116496 834.880215,268.623132 763.920928,241.401459 C728.628717,100.830829 600.2053,0 454.199779,0 C307.36224,0 178.710246,101.589781 144.067192,243.230258 C56.9958749,278.817346 0.0721670635,363.512529 0,457.583781 C0,582.463317 97.0992945,683.559322 221.499765,688.780543 C222.501891,688.927024 223.513346,689 224.526118,689 L260.00119,689 C271.314757,689 280.486215,679.827603 280.486215,668.512879 C280.486215,657.198155 271.314757,648.025758 260.00119,648.025758 L226.775311,648.025758 C226.245013,647.970895 225.714716,647.934319 225.175275,647.916031 C121.8587,644.605904 40.9700507,561.002361 40.9700507,457.583781 C41.0235794,376.699284 92.0921993,304.647638 168.387731,277.812846 C175.184703,275.445412 180.239217,269.682121 181.700026,262.633815 C208.2149,134.197266 322.878012,40.9742401 454.236351,40.9742401 C584.908961,40.9742401 699.398355,133.593762 726.507528,261.22564 C728.029678,268.387236 733.258349,274.191654 740.222117,276.450391 C803.07151,296.905507 851.51144,349.529196 866.624918,413.784047 C869.222439,424.766436 880.209957,431.581193 891.201463,429.027086 L891.201463,429.027086 Z" id="Path"></path>
            <path d="M412.60605,483.922717 C404.710147,481.949883 390.567138,481 369.389264,481 L334.0409,481 C329.047749,481 325,485.036043 325,490.014754 L325,666.985246 C325,671.963957 329.047749,676 334.0409,676 L351.774622,676 C356.767773,676 360.815522,671.963957 360.815522,666.985246 L360.815522,593.70726 L364.479514,593.70726 C387.379465,593.70726 402.878151,592.684309 411.726692,590.574473 C424.660584,587.469087 435.029681,581.230913 442.550025,572.042623 C450.070369,562.854333 454,551.035597 454,537.17096 C454,523.306323 450.052049,511.59719 442.256905,502.235363 C434.651818,493.057489 424.234566,486.623696 412.60605,483.922717 L412.60605,483.922717 Z M381.929276,558.725995 L360.815522,558.470258 L360.815522,516.346604 L383.147554,516.346604 C396.557765,516.346604 402.823191,517.698361 405.708585,518.840047 C409.219865,520.224749 412.192954,522.696224 414.190726,525.891101 C416.420544,529.253106 417.588329,533.204457 417.543279,537.234895 C417.611321,541.342601 416.443604,545.376434 414.190726,548.816159 C412.041532,552.129974 408.877191,554.663736 405.168146,556.040749 C402.062913,557.264637 395.476887,558.716862 381.929276,558.725995 L381.929276,558.725995 Z" id="Shape"></path>
            <path d="M646.453201,481 L643.618603,481 C640.176553,481 637.034154,482.95529 635.517141,486.041217 L572.241607,614.81135 L508.34429,485.986421 C506.817727,482.933586 503.695997,481.00346 500.279403,481 L497.40823,481 C492.917,480.996151 489.107819,484.294425 488.474675,488.735344 L463.091311,665.670986 C462.720118,668.258252 463.491603,670.879051 465.205762,672.853959 C466.919922,674.828867 469.407958,675.963409 472.024865,675.963464 L489.123889,675.963464 C493.638283,675.963473 497.458265,672.63192 498.066588,668.164194 L511.508067,569.705273 L561.83589,670.95878 C563.360276,674.024601 566.491802,675.963479 569.919065,675.963464 L574.445278,675.963464 C577.876632,675.960039 581.009202,674.013436 582.528453,670.940515 L632.170487,570.664199 L645.666829,668.21899 C646.282993,672.676026 650.095531,675.996694 654.600383,676 L671.973723,676 C674.591662,676.003001 677.081635,674.869334 678.796472,672.893646 C680.511308,670.917958 681.28165,668.295368 680.907278,665.707516 L655.386755,488.707946 C654.73757,484.279926 650.933943,481 646.453201,481 Z" id="Path"></path>
            <path d="M765.047722,481 L730.482486,481 C727.361858,481 724.465931,482.633158 722.83764,485.311411 L712.305548,502.666667 C710.623395,505.448319 710.562778,508.92635 712.146967,511.765622 C713.731156,514.604893 716.713977,516.3642 719.950394,516.368184 L738.617619,516.368184 L738.617619,666.984401 C738.617619,671.963579 742.629755,676 747.578976,676 L765.038643,676 C769.987864,676 774,671.963579 774,666.984401 L774,489.988196 C773.985002,485.023286 769.982781,481.005007 765.047722,481 Z" id="Path"></path>
            <path d="M950.203302,521.326759 C944.149887,506.541738 935.664132,495.192543 924.974641,487.608138 C914.371438,479.981088 901.617734,475.917303 888.553561,476.001516 C875.622394,475.910035 863.001843,479.961333 852.543968,487.562448 C842.000783,495.146854 833.798496,506.258465 828.156566,520.595732 C822.670087,534.549211 820,553.336605 820,578.063594 C820,602.63524 822.74324,621.413497 828.27544,635.47663 C833.999667,649.941827 842.211098,661.062576 852.671985,668.555603 C863.097428,676.090966 875.659929,680.09949 888.526129,679.998124 C901.65711,680.07462 914.470638,675.964309 925.102659,668.263192 C935.865303,660.596546 944.360202,649.247351 950.33132,634.517157 C956.165277,620.143338 958.999979,601.675768 958.999979,578.054457 C959.009102,554.67073 956.046403,535.581786 950.203302,521.326759 Z M905.753674,640.027273 C895.274499,647.977192 883.359694,648.123397 872.450744,639.853654 C866.964264,635.668524 862.629946,629.235486 859.648958,620.746435 C856.42108,611.508081 854.78428,597.253054 854.78428,578.365143 C854.78428,559.477232 856.439368,545.112551 859.694679,535.892473 C862.693955,527.394284 867.009985,520.970384 872.432456,516.812667 C877.854926,512.654951 883.231676,510.763419 889.129642,510.763419 C894.872157,510.763419 900.276339,512.74633 905.653089,516.821805 C911.029839,520.897281 915.574473,527.924278 918.902937,537.528146 C922.487437,547.872178 924.307119,561.606349 924.307119,578.356005 C924.307119,595.105662 922.249689,609.315 918.162262,620.984019 C915.263572,629.573586 911.066415,635.979211 905.753674,640.027273 Z" id="Shape"></path>
            <path d="M455.5,317 C466.821837,317 476,307.821837 476,296.5 C476,285.178163 466.821837,276 455.5,276 C444.178163,276 435,285.178163 435,296.5 C435.014971,307.81563 444.18437,316.985029 455.5,317 L455.5,317 Z" id="Path"></path>
            <path d="M476,411.5 C476,400.178163 466.821837,391 455.5,391 C444.178163,391 435,400.178163 435,411.5 C435,422.821837 444.178163,432 455.5,432 C466.817697,431.990011 475.990011,422.817697 476,411.5 Z" id="Path"></path>
            <path d="M455.5,201 C466.821837,201 476,191.821837 476,180.5 C476,169.178163 466.821837,160 455.5,160 C444.178163,160 435,169.178163 435,180.5 C435.014971,191.81563 444.18437,200.985029 455.5,201 L455.5,201 Z" id="Path"></path>
            <path d="M365.5,374 C376.821837,374 386,364.821837 386,353.5 C386,342.178163 376.821837,333 365.5,333 C354.178163,333 345,342.178163 345,353.5 C345.009989,364.817697 354.182303,373.990011 365.5,374 Z" id="Path"></path>
            <path d="M365.4997,259 C373.791055,259 381.26599,254.005408 384.438954,246.345195 C387.611918,238.684982 385.858051,229.867696 379.995178,224.004822 C374.132304,218.141949 365.315018,216.388082 357.654805,219.561046 C349.994592,222.73401 345,230.208945 345,238.5003 C345.009989,249.817831 354.182169,258.990011 365.4997,259 L365.4997,259 Z" id="Path"></path>
            <path d="M275.5,276 C264.178163,276 255,285.178163 255,296.5 C255,307.821837 264.178163,317 275.5,317 C286.821837,317 296,307.821837 296,296.5 C295.985029,285.18437 286.81563,276.014971 275.5,276 L275.5,276 Z" id="Path"></path>
            <path d="M545.5,374 C556.821837,374 566,364.821837 566,353.5 C566,342.178163 556.821837,333 545.5,333 C534.178163,333 525,342.178163 525,353.5 C525.009989,364.817697 534.182303,373.990011 545.5,374 Z" id="Path"></path>
            <path d="M545.4997,259 C553.791055,259 561.26599,254.005408 564.438954,246.345195 C567.611918,238.684982 565.858051,229.867696 559.995178,224.004822 C554.132304,218.141949 545.315018,216.388082 537.654805,219.561046 C529.994592,222.73401 525,230.208945 525,238.5003 C525.014971,249.815765 534.184235,258.985029 545.4997,259 L545.4997,259 Z" id="Path"></path>
            <path d="M656,296.5 C656,285.178163 646.821837,276 635.5,276 C624.178163,276 615,285.178163 615,296.5 C615,307.821837 624.178163,317 635.5,317 C646.81563,316.985029 655.985029,307.81563 656,296.5 L656,296.5 Z" id="Path"></path>
        </g>
    </g>
</svg>
